packages/kaspersky-hexa-ui-icons/src/iconsSVGs/16/Lighting.svg

<svg width="16" height="16" viewBox="0 0 16 16" fill="none" xmlns="http://www.w3.org/2000/svg">
<path fill-rule="evenodd" clip-rule="evenodd" d="M9.96495 0.999712C10.2268 1.10847 10.3879 1.37437 10.3631 1.65679L9.93068 6.58655H12.3171C12.5699 6.58655 12.7998 6.73314 12.9064 6.96237C13.0131 7.19159 12.9771 7.46186 12.8143 7.65524L6.78187 14.8187C6.59926 15.0355 6.29715 15.109 6.03534 15.0003C5.77352 14.8915 5.61239 14.6256 5.63717 14.3432L6.06961 9.41342H3.68321C3.43039 9.41342 3.20051 9.26683 3.09387 9.0376C2.98723 8.80838 3.02317 8.53811 3.18602 8.34473L9.21841 1.1813C9.40103 0.964441 9.70313 0.890959 9.96495 0.999712ZM5.08036 8.11342H6.77912C6.96139 8.11342 7.13528 8.18995 7.2584 8.32434C7.38153 8.45874 7.44256 8.63865 7.42664 8.82022L7.11186 12.4086L10.9199 7.88655H9.22116C9.0389 7.88655 8.865 7.81002 8.74188 7.67563C8.61876 7.54123 8.55772 7.36132 8.57365 7.17975L8.88842 3.59136L5.08036 8.11342Z" fill="black"/>
</svg>

<svg xmlns="http://www.w3.org/2000/svg" width="16" height="16" fill="none" viewBox="0 0 16 16"><path fill="#000" fill-rule="evenodd" d="M9.965.9997a.65.65 0 0 1 .3981.657l-.4324 4.9299h2.3864a.6499.6499 0 0 1 .4972 1.0686l-6.0324 7.1635a.6502.6502 0 0 1-1.1447-.4755l.4324-4.9298H3.6832a.65.65 0 0 1-.4972-1.0687l6.0324-7.1634A.65.65 0 0 1 9.965.9997M5.0804 8.1134H6.779a.65.65 0 0 1 .6475.7068l-.3147 3.5884 3.808-4.522H9.2212a.65.65 0 0 1-.6475-.7068l.3147-3.5884z"/></svg>
